Newaita-dark/apps/48/ruby.svg

<svg height="48pt" viewBox="0 0 48 48" width="48pt" xmlns="http://www.w3.org/2000/svg" xmlns:xlink="http://www.w3.org/1999/xlink"><linearGradient id="a"><stop offset="0" stop-opacity=".313725"/><stop offset=".222222" stop-opacity=".27451"/><stop offset="1" stop-opacity="0"/></linearGradient><radialGradient id="b" cx="450.90894" cy="189.57936" gradientTransform="matrix(.0000002 -.117199 -.158218 -.00000015 53.43753 95.448125)" gradientUnits="userSpaceOnUse" r="21.166656" xlink:href="#a"/><radialGradient id="c" cx="450.90894" cy="189.57936" gradientTransform="matrix(-.0000002 .117199 .158218 .00000015 -5.807985 -11.236094)" gradientUnits="userSpaceOnUse" r="21.166656" xlink:href="#a"/><radialGradient id="d" cx="450.90894" cy="189.57936" gradientTransform="matrix(-.0000002 -.117199 .158218 -.00000015 -5.807985 95.448125)" gradientUnits="userSpaceOnUse" r="21.166656" xlink:href="#a"/><radialGradient id="e" cx="450.90894" cy="189.57936" gradientTransform="matrix(.0000002 .117199 -.158218 .00000015 53.437528 -11.236095)" gradientUnits="userSpaceOnUse" r="21.166656" xlink:href="#a"/><linearGradient id="f"><stop offset="0" stop-color="#e57373"/><stop offset="1" stop-color="#ef9a9a"/></linearGradient><linearGradient id="g" gradientUnits="userSpaceOnUse" x1="11.907408" x2="11.907408" xlink:href="#f" y1="42.05096669922" y2="4.34417296272"/><linearGradient id="h"><stop offset="0" stop-color="#ef5350"/><stop offset="1" stop-color="#e57373"/></linearGradient><linearGradient id="i" gradientUnits="userSpaceOnUse" x1="19.84568" x2="19.84568" xlink:href="#h" y1="42.05096669922" y2="4.34417296272"/><linearGradient id="j"><stop offset="0" stop-color="#f44336"/><stop offset="1" stop-color="#ef5350"/></linearGradient><linearGradient id="k" gradientUnits="userSpaceOnUse" x1="23.814816" x2="23.814816" xlink:href="#j" y1="42.05096669922" y2="4.34417271465"/><linearGradient id="l" gradientUnits="userSpaceOnUse" x1="31.753088" x2="31.753088" xlink:href="#h" y1="42.05096669922" y2="4.34417296272"/><linearGradient id="m" gradientUnits="userSpaceOnUse" x1="37.706792" x2="37.706792" xlink:href="#f" y1="42.05096669922" y2="4.34417296272"/><linearGradient id="n" gradientUnits="userSpaceOnUse" x1="9.92284" x2="9.92284" xlink:href="#j" y1="42.05096669922" y2="4.34417296272"/><linearGradient id="o" gradientUnits="userSpaceOnUse" x1="23.814816" x2="23.814816" xlink:href="#h" y1="42.05096669922" y2="4.34417271465"/><linearGradient id="p" gradientUnits="userSpaceOnUse" x1="33.737656" x2="33.737656" xlink:href="#j" y1="42.05096669922" y2="4.34417296272"/><path d="m23.816406 42.105469h2.976563v-1.984375h-2.976563zm0 0" fill="url(#b)"/><path d="m23.816406 42.105469h-2.976562v1.984375h2.976562zm0 0" fill="url(#c)"/><path d="m23.816406 42.105469h-2.976562v-1.984375h2.976562zm0 0" fill="url(#d)"/><path d="m23.816406 42.105469h2.976563v1.984375h-2.976563zm0 0" fill="url(#e)"/><path d="m10.839844 4.835938c-.222656.191406-.402344.433593-.523438.714843l-5.953125 13.890625c-.109375.253906-.160156.515625-.160156.78125h12.34375zm0 0" fill="url(#g)"/><path d="m23.796875 4.355469h-11.664063c-.484374 0-.941406.175781-1.292968.480469l5.699218 15.367187zm0 0" fill="url(#i)"/><path d="m23.796875 4.355469-7.257813 15.847656.007813.019531h14.542969l-7.257813-15.867187zm0 0" fill="url(#k)"/><path d="m37.226562 4.828125c-.347656-.296875-.800781-.472656-1.28125-.472656h-12.113281l7.257813 15.867187h.0625zm0 0" fill="url(#l)"/><path d="m37.226562 4.828125-6.074218 15.394531h12.722656c0-.265625-.050781-.527344-.160156-.78125l-5.953125-13.890625c-.121094-.285156-.308594-.527343-.535157-.722656zm0 0" fill="url(#m)"/><path d="m16.539062 20.222656h-12.558593c0 .476563.171875.949219.503906 1.320313l17.863281 19.84375c.390625.4375.925782.652343 1.464844.652343zm0 0" fill="url(#n)"/><path d="m16.539062 20.222656 7.273438 21.816406s.003906.003907.003906.003907l7.273438-21.820313zm0 0" fill="url(#o)"/><path d="m31.089844 20.222656-7.273438 21.820313c.539063-.003907 1.074219-.21875 1.464844-.65625l17.863281-19.84375c.332031-.371094.507813-.84375.507813-1.320313zm0 0" fill="url(#p)"/><path d="m12.132812 4.355469c-.484374 0-.941406.175781-1.292968.480469-.222656.191406-.402344.433593-.523438.714843l-5.953125 13.890625c-.109375.253906-.160156.515625-.160156.78125h-.222656c0 .164063.019531.328125.0625.488282h.160156c0-.261719.050781-.527344.160156-.777344l5.953125-13.890625c.121094-.28125.300782-.523438.523438-.714844.351562-.304687.808594-.484375 1.292968-.484375h23.8125c.480469 0 .933594.175781 1.28125.476562.226563.195313.414063.4375.535157.722657l5.953125 13.890625c.039062.09375.074218.191406.097656.289062h.0625c0-.265625-.050781-.527344-.160156-.78125l-5.953125-13.890625c-.121094-.285156-.308594-.527343-.535157-.722656-.347656-.296875-.800781-.472656-1.28125-.472656zm0 0" fill="#fff" fill-opacity=".392157"/><path d="m3.980469 20.222656c0 .476563.171875.949219.503906 1.320313l17.863281 19.84375c.390625.4375.925782.652343 1.464844.652343 0 0 .003906.003907.003906.003907.539063-.003907 1.074219-.21875 1.464844-.65625l17.863281-19.84375c.332031-.371094.507813-.84375.507813-1.320313h-.105469c-.082031.25-.21875.488282-.402344.691406l-17.863281 19.847657c-.390625.433593-.925781.652343-1.464844.652343h-.003906c-.539062 0-1.074219-.21875-1.464844-.652343l-17.863281-19.847657c-.183594-.203124-.320313-.441406-.402344-.691406zm0 0" fill-opacity=".235294"/><path d="m12.132812 4.210938c-.519531.003906-1.003906.191406-1.378906.515624-.003906 0-.003906 0-.003906.003907-.238281.203125-.433594.464843-.5625.765625l-5.953125 13.890625c-.097656.222656-.152344.457031-.167969.691406h-.085937c-.078125 0-.144531.066406-.144531.144531.003906.511719.1875 1.019532.546874 1.414063l17.859376 19.84375c.417968.464843.992187.699219 1.566406.699219-.007813 0-.007813.003906.007812.003906h.003906c.574219-.003906 1.148438-.238282 1.566407-.703125l17.863281-19.84375c.320312-.359375.503906-.8125.535156-1.273438h.089844c.078125 0 .140625-.066406.140625-.140625 0-.285156-.054687-.566406-.171875-.835937l-5.953125-13.890625c-.128906-.304688-.328125-.566406-.570313-.773438-.375-.320312-.859374-.507812-1.375-.511718zm0 .285156h11.445313l-4.425781 9.667968-2.597656 5.671876-5.546876-14.953126c.316407-.246093.707032-.386718 1.125-.386718zm11.917969 0h11.894531c.414063 0 .800782.136718 1.113282.378906l-.097656.25-5.847657 14.808594zm-.234375.152344 7.054688 15.429687h-14.121094l.695312-1.515625zm13.464844.425781c.144531.152343.265625.332031.351562.53125l5.953126 13.894531c.082031.1875.125.382812.140624.578125h-12.367187zm-26.496094.011719 5.558594 14.992187h-11.992188c.015626-.195313.058594-.390625.140626-.578125l5.953124-13.894531c.082032-.195313.199219-.367188.339844-.519531zm-6.660156 15.277343h12.3125l3.578125 10.738281 3.597656 10.785157c-.429687-.046875-.847656-.242188-1.160156-.59375l-17.863281-19.84375c-.277344-.308594-.433594-.691407-.464844-1.085938zm12.609375 0h14.160156l-7.078125 21.242188zm14.457031 0h12.3125c-.03125.394531-.1875.777344-.464844 1.085938l-17.859374 19.84375c-.316407.351562-.734376.546875-1.164063.597656zm0 0" fill="#212121"/></svg>

<?xml version="1.0" encoding="UTF-8"?>
<svg xmlns="http://www.w3.org/2000/svg" xmlns:xlink="http://www.w3.org/1999/xlink" width="48pt" height="48pt" viewBox="0 0 48 48" version="1.1">
<defs>
<radialGradient id="radial0" gradientUnits="userSpaceOnUse" cx="450.90894" cy="189.57936" fx="450.90894" fy="189.57936" r="21.166656" gradientTransform="matrix(0.000000195942,-0.117199,-0.158218,-0.000000152308,53.43753,95.448125)">
<stop offset="0" style="stop-color:rgb(0%,0%,0%);stop-opacity:0.313725;"/>
<stop offset="0.222222" style="stop-color:rgb(0%,0%,0%);stop-opacity:0.27451;"/>
<stop offset="1" style="stop-color:rgb(0%,0%,0%);stop-opacity:0;"/>
</radialGradient>
<radialGradient id="radial1" gradientUnits="userSpaceOnUse" cx="450.90894" cy="189.57936" fx="450.90894" fy="189.57936" r="21.166656" gradientTransform="matrix(-0.000000195942,0.117199,0.158218,0.000000152308,-5.807985,-11.236094)">
<stop offset="0" style="stop-color:rgb(0%,0%,0%);stop-opacity:0.313725;"/>
<stop offset="0.222222" style="stop-color:rgb(0%,0%,0%);stop-opacity:0.27451;"/>
<stop offset="1" style="stop-color:rgb(0%,0%,0%);stop-opacity:0;"/>
</radialGradient>
<radialGradient id="radial2" gradientUnits="userSpaceOnUse" cx="450.90894" cy="189.57936" fx="450.90894" fy="189.57936" r="21.166656" gradientTransform="matrix(-0.000000195942,-0.117199,0.158218,-0.000000152308,-5.807985,95.448125)">
<stop offset="0" style="stop-color:rgb(0%,0%,0%);stop-opacity:0.313725;"/>
<stop offset="0.222222" style="stop-color:rgb(0%,0%,0%);stop-opacity:0.27451;"/>
<stop offset="1" style="stop-color:rgb(0%,0%,0%);stop-opacity:0;"/>
</radialGradient>
<radialGradient id="radial3" gradientUnits="userSpaceOnUse" cx="450.90894" cy="189.57936" fx="450.90894" fy="189.57936" r="21.166656" gradientTransform="matrix(0.000000195942,0.117199,-0.158218,0.000000152308,53.437528,-11.236095)">
<stop offset="0" style="stop-color:rgb(0%,0%,0%);stop-opacity:0.313725;"/>
<stop offset="0.222222" style="stop-color:rgb(0%,0%,0%);stop-opacity:0.27451;"/>
<stop offset="1" style="stop-color:rgb(0%,0%,0%);stop-opacity:0;"/>
</radialGradient>
<linearGradient id="linear0" gradientUnits="userSpaceOnUse" x1="480" y1="1695.1182" x2="480" y2="175.11813" gradientTransform="matrix(0.0248071,0,0,0.0248071,0,0)">
<stop offset="0" style="stop-color:rgb(89.803922%,45.098039%,45.098039%);stop-opacity:1;"/>
<stop offset="1" style="stop-color:rgb(93.72549%,60.392157%,60.392157%);stop-opacity:1;"/>
</linearGradient>
<linearGradient id="linear1" gradientUnits="userSpaceOnUse" x1="800" y1="1695.1182" x2="800" y2="175.11813" gradientTransform="matrix(0.0248071,0,0,0.0248071,0,0)">
<stop offset="0" style="stop-color:rgb(93.72549%,32.54902%,31.372549%);stop-opacity:1;"/>
<stop offset="1" style="stop-color:rgb(89.803922%,45.098039%,45.098039%);stop-opacity:1;"/>
</linearGradient>
<linearGradient id="linear2" gradientUnits="userSpaceOnUse" x1="960" y1="1695.1182" x2="960" y2="175.11812" gradientTransform="matrix(0.0248071,0,0,0.0248071,0,0)">
<stop offset="0" style="stop-color:rgb(95.686275%,26.27451%,21.176471%);stop-opacity:1;"/>
<stop offset="1" style="stop-color:rgb(93.72549%,32.54902%,31.372549%);stop-opacity:1;"/>
</linearGradient>
<linearGradient id="linear3" gradientUnits="userSpaceOnUse" x1="1280" y1="1695.1182" x2="1280" y2="175.11813" gradientTransform="matrix(0.0248071,0,0,0.0248071,0,0)">
<stop offset="0" style="stop-color:rgb(93.72549%,32.54902%,31.372549%);stop-opacity:1;"/>
<stop offset="1" style="stop-color:rgb(89.803922%,45.098039%,45.098039%);stop-opacity:1;"/>
</linearGradient>
<linearGradient id="linear4" gradientUnits="userSpaceOnUse" x1="1520" y1="1695.1182" x2="1520" y2="175.11813" gradientTransform="matrix(0.0248071,0,0,0.0248071,0,0)">
<stop offset="0" style="stop-color:rgb(89.803922%,45.098039%,45.098039%);stop-opacity:1;"/>
<stop offset="1" style="stop-color:rgb(93.72549%,60.392157%,60.392157%);stop-opacity:1;"/>
</linearGradient>
<linearGradient id="linear5" gradientUnits="userSpaceOnUse" x1="400" y1="1695.1182" x2="400" y2="175.11813" gradientTransform="matrix(0.0248071,0,0,0.0248071,0,0)">
<stop offset="0" style="stop-color:rgb(95.686275%,26.27451%,21.176471%);stop-opacity:1;"/>
<stop offset="1" style="stop-color:rgb(93.72549%,32.54902%,31.372549%);stop-opacity:1;"/>
</linearGradient>
<linearGradient id="linear6" gradientUnits="userSpaceOnUse" x1="960" y1="1695.1182" x2="960" y2="175.11812" gradientTransform="matrix(0.0248071,0,0,0.0248071,0,0)">
<stop offset="0" style="stop-color:rgb(93.72549%,32.54902%,31.372549%);stop-opacity:1;"/>
<stop offset="1" style="stop-color:rgb(89.803922%,45.098039%,45.098039%);stop-opacity:1;"/>
</linearGradient>
<linearGradient id="linear7" gradientUnits="userSpaceOnUse" x1="1360" y1="1695.1182" x2="1360" y2="175.11813" gradientTransform="matrix(0.0248071,0,0,0.0248071,0,0)">
<stop offset="0" style="stop-color:rgb(95.686275%,26.27451%,21.176471%);stop-opacity:1;"/>
<stop offset="1" style="stop-color:rgb(93.72549%,32.54902%,31.372549%);stop-opacity:1;"/>
</linearGradient>
</defs>
<g id="surface1">
<path style=" stroke:none;fill-rule:nonzero;fill:url(#radial0);" d="M 23.816406 42.105469 L 26.792969 42.105469 L 26.792969 40.121094 L 23.816406 40.121094 Z M 23.816406 42.105469 "/>
<path style=" stroke:none;fill-rule:nonzero;fill:url(#radial1);" d="M 23.816406 42.105469 L 20.839844 42.105469 L 20.839844 44.089844 L 23.816406 44.089844 Z M 23.816406 42.105469 "/>
<path style=" stroke:none;fill-rule:nonzero;fill:url(#radial2);" d="M 23.816406 42.105469 L 20.839844 42.105469 L 20.839844 40.121094 L 23.816406 40.121094 Z M 23.816406 42.105469 "/>
<path style=" stroke:none;fill-rule:nonzero;fill:url(#radial3);" d="M 23.816406 42.105469 L 26.792969 42.105469 L 26.792969 44.089844 L 23.816406 44.089844 Z M 23.816406 42.105469 "/>
<path style=" stroke:none;fill-rule:nonzero;fill:url(#linear0);" d="M 10.839844 4.835938 C 10.617188 5.027344 10.4375 5.269531 10.316406 5.550781 L 4.363281 19.441406 C 4.253906 19.695312 4.203125 19.957031 4.203125 20.222656 L 16.546875 20.222656 Z M 10.839844 4.835938 "/>
<path style=" stroke:none;fill-rule:nonzero;fill:url(#linear1);" d="M 23.796875 4.355469 L 12.132812 4.355469 C 11.648438 4.355469 11.191406 4.53125 10.839844 4.835938 L 16.539062 20.203125 Z M 23.796875 4.355469 "/>
<path style=" stroke:none;fill-rule:nonzero;fill:url(#linear2);" d="M 23.796875 4.355469 L 16.539062 20.203125 L 16.546875 20.222656 L 31.089844 20.222656 L 23.832031 4.355469 Z M 23.796875 4.355469 "/>
<path style=" stroke:none;fill-rule:nonzero;fill:url(#linear3);" d="M 37.226562 4.828125 C 36.878906 4.53125 36.425781 4.355469 35.945312 4.355469 L 23.832031 4.355469 L 31.089844 20.222656 L 31.152344 20.222656 Z M 37.226562 4.828125 "/>
<path style=" stroke:none;fill-rule:nonzero;fill:url(#linear4);" d="M 37.226562 4.828125 L 31.152344 20.222656 L 43.875 20.222656 C 43.875 19.957031 43.824219 19.695312 43.714844 19.441406 L 37.761719 5.550781 C 37.640625 5.265625 37.453125 5.023438 37.226562 4.828125 Z M 37.226562 4.828125 "/>
<path style=" stroke:none;fill-rule:nonzero;fill:url(#linear5);" d="M 16.539062 20.222656 L 3.980469 20.222656 C 3.980469 20.699219 4.152344 21.171875 4.484375 21.542969 L 22.347656 41.386719 C 22.738281 41.824219 23.273438 42.039062 23.8125 42.039062 Z M 16.539062 20.222656 "/>
<path style=" stroke:none;fill-rule:nonzero;fill:url(#linear6);" d="M 16.539062 20.222656 L 23.8125 42.039062 C 23.8125 42.039062 23.816406 42.042969 23.816406 42.042969 L 31.089844 20.222656 Z M 16.539062 20.222656 "/>
<path style=" stroke:none;fill-rule:nonzero;fill:url(#linear7);" d="M 31.089844 20.222656 L 23.816406 42.042969 C 24.355469 42.039062 24.890625 41.824219 25.28125 41.386719 L 43.144531 21.542969 C 43.476562 21.171875 43.652344 20.699219 43.652344 20.222656 Z M 31.089844 20.222656 "/>
<path style=" stroke:none;fill-rule:nonzero;fill:rgb(100%,100%,100%);fill-opacity:0.392157;" d="M 12.132812 4.355469 C 11.648438 4.355469 11.191406 4.53125 10.839844 4.835938 C 10.617188 5.027344 10.4375 5.269531 10.316406 5.550781 L 4.363281 19.441406 C 4.253906 19.695312 4.203125 19.957031 4.203125 20.222656 L 3.980469 20.222656 C 3.980469 20.386719 4 20.550781 4.042969 20.710938 L 4.203125 20.710938 C 4.203125 20.449219 4.253906 20.183594 4.363281 19.933594 L 10.316406 6.042969 C 10.4375 5.761719 10.617188 5.519531 10.839844 5.328125 C 11.191406 5.023438 11.648438 4.84375 12.132812 4.84375 L 35.945312 4.84375 C 36.425781 4.84375 36.878906 5.019531 37.226562 5.320312 C 37.453125 5.515625 37.640625 5.757812 37.761719 6.042969 L 43.714844 19.933594 C 43.753906 20.027344 43.789062 20.125 43.8125 20.222656 L 43.875 20.222656 C 43.875 19.957031 43.824219 19.695312 43.714844 19.441406 L 37.761719 5.550781 C 37.640625 5.265625 37.453125 5.023438 37.226562 4.828125 C 36.878906 4.53125 36.425781 4.355469 35.945312 4.355469 Z M 12.132812 4.355469 "/>
<path style=" stroke:none;fill-rule:nonzero;fill:rgb(0%,0%,0%);fill-opacity:0.235294;" d="M 3.980469 20.222656 C 3.980469 20.699219 4.152344 21.171875 4.484375 21.542969 L 22.347656 41.386719 C 22.738281 41.824219 23.273438 42.039062 23.8125 42.039062 C 23.8125 42.039062 23.816406 42.042969 23.816406 42.042969 C 24.355469 42.039062 24.890625 41.824219 25.28125 41.386719 L 43.144531 21.542969 C 43.476562 21.171875 43.652344 20.699219 43.652344 20.222656 L 43.546875 20.222656 C 43.464844 20.472656 43.328125 20.710938 43.144531 20.914062 L 25.28125 40.761719 C 24.890625 41.195312 24.355469 41.414062 23.816406 41.414062 C 23.816406 41.414062 23.8125 41.414062 23.8125 41.414062 C 23.273438 41.414062 22.738281 41.195312 22.347656 40.761719 L 4.484375 20.914062 C 4.300781 20.710938 4.164062 20.472656 4.082031 20.222656 Z M 3.980469 20.222656 "/>
<path style=" stroke:none;fill-rule:nonzero;fill:rgb(12.941176%,12.941176%,12.941176%);fill-opacity:1;" d="M 12.132812 4.210938 C 11.613281 4.214844 11.128906 4.402344 10.753906 4.726562 C 10.75 4.726562 10.75 4.726562 10.75 4.730469 C 10.511719 4.933594 10.316406 5.195312 10.1875 5.496094 L 4.234375 19.386719 C 4.136719 19.609375 4.082031 19.84375 4.066406 20.078125 L 3.980469 20.078125 C 3.902344 20.078125 3.835938 20.144531 3.835938 20.222656 C 3.839844 20.734375 4.023438 21.242188 4.382812 21.636719 L 22.242188 41.480469 C 22.660156 41.945312 23.234375 42.179688 23.808594 42.179688 C 23.800781 42.179688 23.800781 42.183594 23.816406 42.183594 C 23.820312 42.183594 23.820312 42.183594 23.820312 42.183594 C 24.394531 42.179688 24.96875 41.945312 25.386719 41.480469 L 43.25 21.636719 C 43.570312 21.277344 43.753906 20.824219 43.785156 20.363281 L 43.875 20.363281 C 43.953125 20.363281 44.015625 20.296875 44.015625 20.222656 C 44.015625 19.9375 43.960938 19.65625 43.84375 19.386719 L 37.890625 5.496094 C 37.761719 5.191406 37.5625 4.929688 37.320312 4.722656 C 36.945312 4.402344 36.460938 4.214844 35.945312 4.210938 Z M 12.132812 4.496094 L 23.578125 4.496094 L 19.152344 14.164062 L 16.554688 19.835938 L 11.007812 4.882812 C 11.324219 4.636719 11.714844 4.496094 12.132812 4.496094 Z M 24.050781 4.496094 L 35.945312 4.496094 C 36.359375 4.496094 36.746094 4.632812 37.058594 4.875 L 36.960938 5.125 L 31.113281 19.933594 Z M 23.816406 4.648438 L 30.871094 20.078125 L 16.75 20.078125 L 17.445312 18.5625 Z M 37.28125 5.074219 C 37.425781 5.226562 37.546875 5.40625 37.632812 5.605469 L 43.585938 19.5 C 43.667969 19.6875 43.710938 19.882812 43.726562 20.078125 L 31.359375 20.078125 Z M 10.785156 5.085938 L 16.34375 20.078125 L 4.351562 20.078125 C 4.367188 19.882812 4.410156 19.6875 4.492188 19.5 L 10.445312 5.605469 C 10.527344 5.410156 10.644531 5.238281 10.785156 5.085938 Z M 4.125 20.363281 L 16.4375 20.363281 L 20.015625 31.101562 L 23.613281 41.886719 C 23.183594 41.839844 22.765625 41.644531 22.453125 41.292969 L 4.589844 21.449219 C 4.3125 21.140625 4.15625 20.757812 4.125 20.363281 Z M 16.734375 20.363281 L 30.894531 20.363281 L 23.816406 41.605469 Z M 31.191406 20.363281 L 43.503906 20.363281 C 43.472656 20.757812 43.316406 21.140625 43.039062 21.449219 L 25.179688 41.292969 C 24.863281 41.644531 24.445312 41.839844 24.015625 41.890625 Z M 31.191406 20.363281 "/>
</g>
</svg>
